assets/svg/1F47D.svg

<svg xmlns="http://www.w3.org/2000/svg" viewBox="0 0 64 64" enable-background="new 0 0 64 64"><g transform="translate(2)"><path d="M 61.361,21.857 C 61.361,9.778 47.634,0 30.681,0 13.729,0 0,9.778 0,21.857 0,33.924 13.729,63.689 30.681,63.689 47.634,63.688 61.361,33.924 61.361,21.857 z" fill="#93bbc5"/><path d="m29.08 59.2c-10.244-14.731-9.247-42.27.174-59.15-16.283.535-29.25 10.07-29.25 21.806 0 12.07 13.729 41.832 30.681 41.832.713 0 1.419-.071 2.122-.174-1.329-1.254-2.58-2.673-3.723-4.316" fill="#82a8b1"/><path d="m21.983 28.554c6.687 9.148 9.1 18.74 5.407 21.445-3.704 2.704-12.11-2.512-18.794-11.659-6.68-9.14-9.107-18.739-5.405-21.448 3.698-2.701 12.11 2.527 18.792 11.662" fill="#25333a"/><path d="m17.557 29.02c3.89 5.323 5.294 10.904 3.147 12.479-2.156 1.574-7.04-1.462-10.936-6.782-3.888-5.321-5.299-10.904-3.145-12.483 2.151-1.57 7.05 1.472 10.934 6.786" fill="#d1d2d2"/><path d="m39.21 28.554c-6.688 9.148-9.1 18.74-5.407 21.445 3.704 2.704 12.11-2.512 18.794-11.659 6.681-9.14 9.107-18.739 5.405-21.448-3.698-2.701-12.12 2.527-18.792 11.662" fill="#25333a"/><path d="m44.11 28.999c-3.89 5.321-5.295 10.904-3.146 12.478 2.154 1.572 7.04-1.461 10.937-6.786 3.886-5.316 5.299-10.902 3.145-12.478-2.152-1.571-7.05 1.469-10.936 6.786" fill="#d1d2d2"/></g></svg>

<?xml version="1.0" encoding="UTF-8" standalone="no"?>
<!-- Generator: Adobe Illustrator 16.0.0, SVG Export Plug-In . SVG Version: 6.00 Build 0)  -->

<svg
   xmlns:dc="http://purl.org/dc/elements/1.1/"
   xmlns:cc="http://creativecommons.org/ns#"
   xmlns:rdf="http://www.w3.org/1999/02/22-rdf-syntax-ns#"
   xmlns:svg="http://www.w3.org/2000/svg"
   xmlns="http://www.w3.org/2000/svg"
   xmlns:sodipodi="http://sodipodi.sourceforge.net/DTD/sodipodi-0.dtd"
   xmlns:inkscape="http://www.inkscape.org/namespaces/inkscape"
   version="1.1"
   id="Layer_1"
   x="0px"
   y="0px"
   width="64px"
   height="64px"
   viewBox="0 0 64 64"
   enable-background="new 0 0 64 64"
   xml:space="preserve"
   inkscape:version="0.48.5 r10040"
   sodipodi:docname="1F47D.svg"
   inkscape:export-filename="D:\TESTINGEMOJI\SVGTEST\1F47D.png"
   inkscape:export-xdpi="90"
   inkscape:export-ydpi="90"><metadata
   id="metadata5270"><rdf:RDF><cc:Work
       rdf:about=""><dc:format>image/svg+xml</dc:format><dc:type
         rdf:resource="http://purl.org/dc/dcmitype/StillImage" /><dc:title></dc:title></cc:Work></rdf:RDF></metadata><defs
   id="defs5268" /><sodipodi:namedview
   pagecolor="#ffffff"
   bordercolor="#666666"
   borderopacity="1"
   objecttolerance="10"
   gridtolerance="10"
   guidetolerance="10"
   inkscape:pageopacity="0"
   inkscape:pageshadow="2"
   inkscape:window-width="640"
   inkscape:window-height="480"
   id="namedview5266"
   showgrid="false"
   inkscape:zoom="3.6875"
   inkscape:cx="32"
   inkscape:cy="32"
   inkscape:window-x="552"
   inkscape:window-y="261"
   inkscape:window-maximized="0"
   inkscape:current-layer="Layer_1" />
<g
   id="g5252"
   transform="translate(2,0)">
	<path
   d="M 61.361,21.857 C 61.361,9.778 47.634,0 30.681,0 13.729,0 0,9.778 0,21.857 0,33.924 13.729,63.689 30.681,63.689 47.634,63.688 61.361,33.924 61.361,21.857 z"
   id="path5254"
   inkscape:connector-curvature="0"
   style="fill:#93bbc5" />
	<path
   d="M 29.08,59.199 C 18.836,44.468 19.833,16.926 29.254,0.051 12.971,0.586 0,10.122 0,21.857 c 0,12.067 13.729,41.832 30.681,41.832 0.713,0 1.419,-0.071 2.122,-0.174 -1.329,-1.254 -2.58,-2.673 -3.723,-4.316 z"
   id="path5256"
   inkscape:connector-curvature="0"
   style="fill:#82a8b1" />
	<path
   d="m 21.983,28.554 c 6.687,9.148 9.099,18.74 5.407,21.445 C 23.686,52.703 15.283,47.487 8.596,38.34 1.916,29.2 -0.511,19.601 3.191,16.892 6.889,14.191 15.306,19.419 21.983,28.554 z"
   id="path5258"
   inkscape:connector-curvature="0"
   style="fill:#25333a" />
	<path
   d="m 17.557,29.022 c 3.89,5.323 5.294,10.904 3.147,12.479 C 18.548,43.075 13.66,40.039 9.768,34.719 5.88,29.398 4.469,23.815 6.623,22.236 c 2.151,-1.57 7.048,1.472 10.934,6.786 z"
   id="path5260"
   inkscape:connector-curvature="0"
   style="fill:#d1d2d2" />
	<path
   d="M 39.213,28.554 C 32.525,37.702 30.114,47.294 33.806,49.999 37.51,52.703 45.912,47.487 52.6,38.34 59.281,29.2 61.707,19.601 58.005,16.892 54.307,14.191 45.89,19.419 39.213,28.554 z"
   id="path5262"
   inkscape:connector-curvature="0"
   style="fill:#25333a" />
	<path
   d="m 44.114,28.999 c -3.89,5.321 -5.295,10.904 -3.146,12.478 2.154,1.572 7.043,-1.461 10.937,-6.786 3.886,-5.316 5.299,-10.902 3.145,-12.478 -2.152,-1.571 -7.051,1.469 -10.936,6.786 z"
   id="path5264"
   inkscape:connector-curvature="0"
   style="fill:#d1d2d2" />
</g>
</svg>
